!!!ONB: MCCC : IWM0405_02 : Extracted Monophonic Melody
!!!COM: Mozart, Wolfgang Amadeus
!!!OPR: Piano Sonata No.5
!!!OMV: 2
!!!SCT: K.283 ; K⁶.189h
!!!ODT: 1775///
**kern
*thru
*staff1
*>A
*clefG2
*k[]
*C:
*M4/4
*met(c)
*MM84
=1
8cc
8cc
8cc
8cc
8b
8ff
4ff
=2
4ee
16gg
16ff
16ee
16dd
16cc
16b
16a
16g
16a
16g
16a
16b
=3
8cc
8cc
8cc
8cc
8b
8ff
4ff
=4
16ff
16ee
16ff
16dd
8cc
8b
4b
8cc
8r
=5
4ee
8.gg
16ff
8ee
16.r
32dd
8cc
16.r
32ee
=6
8dd
16.r
32ff#
8gg
16.r
32bb
8dd
8cc
8b
8r
=7
4a
16cc
16b
16a
16g
16f#
16g
16a
16b
16cc
16dd
16ee
16ff#
=8
16gg
16aa
16bb
16ccc
16ddd
16bb
16eee
16ccc
4bb
8aa
8r
=9
8.dd
32ee
32ff#
16gg
16ff#
16ee
16dd
16dd
32cc
32r
16b
32a
32r
8g
16f#
16r
=10
8.dd
32ee
32ff#
32gg
32aa
32bb
32ff#
32gg
32dd
32ee
32b
16dd
32dd
32cc
16b
32b
32a
8g
16f#
16r
=11
16g
16gg
4gg
8ff
8dd#
8ee
16aa
16gg
16ff#
16ee
=12
16ee
16dd
16ee
16cc
8b
8a
16g
16gg
4gg
8ff
=13
8dd#
8ee
8r
32aa
32gg
32ff#
32ee
32cc#
32dd#
32cc#
32dd#
32ff#
32ee
32dd#
32cc
32a#
32b
32a#
32b
32dd#
32cc
32b
32a
=14
*>A1
8g
32cc
32b
32cc
32a
8g
32cc
32b
32cc
32a
8g
8r
4r
=15
*>A
*M4/4
8cc
8cc
8cc
8cc
8b
8ff
4ff
=16
4ee
16gg
16ff
16ee
16dd
16cc
16b
16a
16g
16a
16g
16a
16b
=17
8cc
8cc
8cc
8cc
8b
8ff
4ff
=18
16ff
16ee
16ff
16dd
8cc
8b
4b
8cc
8r
=19
4ee
8.gg
16ff
8ee
16.r
32dd
8cc
16.r
32ee
=20
8dd
16.r
32ff#
8gg
16.r
32bb
8dd
8cc
8b
8r
=21
4a
16cc
16b
16a
16g
16f#
16g
16a
16b
16cc
16dd
16ee
16ff#
=22
16gg
16aa
16bb
16ccc
16ddd
16bb
16eee
16ccc
4bb
8aa
8r
=23
8.dd
32ee
32ff#
16gg
16ff#
16ee
16dd
16dd
32cc
32r
16b
32a
32r
8g
16f#
16r
=24
8.dd
32ee
32ff#
32gg
32aa
32bb
32ff#
32gg
32dd
32ee
32b
16dd
32dd
32cc
16b
32b
32a
8g
16f#
16r
=25
16g
16gg
4gg
8ff
8dd#
8ee
16aa
16gg
16ff#
16ee
=26
16ee
16dd
16ee
16cc
8b
8a
16g
16gg
4gg
8ff
=27
8dd#
8ee
8r
32aa
32gg
32ff#
32ee
32cc#
32dd#
32cc#
32dd#
32ff#
32ee
32dd#
32cc
32a#
32b
32a#
32b
32dd#
32cc
32b
32a
=28
*>A2
8g
32cc
32b
32cc
32a
8g
32cc
32b
32cc
32a
8g
8r
4r
=29
*>B
16r
16ff#
16gg
16aa
16bb-
16gg
16ee
16dd
8cc#
8r
4r
=30
16r
16ff#
16gg
16aa
32ccc
32bb-
32aa
32gg
32aa
32gg
32ff
32ee
8dd
8dd
8dd
8dd
=31
8cc#
8gg
4gg
4ff
16aa
16gg
16ff
16ee
=32
4dd
16gg
16ff
16ee
16dd
8cc
8cc
8cc
8cc
=33
8b
8ff
8ff
8r
16r
16ee
16dd#
16ee
16dd
16cc
16b
16a
=34
16r
16dd
16cc#
16dd
16cc
16b
16a
16g#
8a
8d#
4d#
=35
8ddd
8dd
4dd
2cc
=36
16b
16ee
16dd#
16ee
16r
32aa
32bb
32ddd
32ccc
32bb
32aa
16gg#
16ee
16dd#
16ee
16r
32aa
32bb
32ddd
32ccc
32bb
32aa
=37
8gg#
4e
[8e
16e]
16f
16f#
16g
16g#
16a
16b-
16b
=38
8cc
8cc
8cc
8cc
8b
8ff
4ff
=39
4ee
16gg
16ff
16ee
16dd
16cc
16b
16a
16g
16a
16g
16a
16b
=40
8cc
8cc
8cc
8cc
8b
8ff
4ff
=41
16ff
16ee
16ff
16dd
8cc
8b
8cc
8bb-
8bb-
8r
=42
4aa
8.ccc
16bb-
8aa
16.r
32gg
8ff
16.r
32aa
=43
8gg
16.r
32bb
8ccc
16.r
32eee
8gg
8ff
8ee
8r
=44
4dd
16ff
16ee
16dd
16cc
16b
16cc
16dd
16ee
16ff
16gg
16aa
16bb
=45
16ccc
16dd
16ee
16ff
16gg
16ee
16aa
16ff
4ee
8dd
8r
=46
8.g
32a
32b
16cc
16b
16a
16g
16g
32f
32r
16e
32d
32r
8c
16B
16r
=47
8.gg
32aa
32bb
32ccc
32ddd
32eee
32bb
32ccc
32gg
32aa
32ee
16gg
32gg
32ff
16ee
32ee
32dd
8cc
16b
16r
=48
16cc
16ccc
4ccc
8bb-
8gg#
8aa
16ddd
16ccc
16bb
16aa
=49
16aa
16gg
16aa
16ff
8ee
8dd
16cc
16ccc
4ccc
8bb-
=50
8gg#
8aa
8r
32ddd
32ccc
32bb
32aa
32ff#
32gg
32ff#
32gg
32bb
32aa
32gg
32ff
32dd#
32ee
32dd#
32ee
32gg
32ff
32ee
32dd
=51
*>B1
8cc
32ff
32ee
32ff
32dd
8cc
32ff
32ee
32ff
32dd
8cc
8r
4r
=52
*>B
16r
16ff#
16gg
16aa
16bb-
16gg
16ee
16dd
8cc#
8r
4r
=53
16r
16ff#
16gg
16aa
32ccc
32bb-
32aa
32gg
32aa
32gg
32ff
32ee
8dd
8dd
8dd
8dd
=54
8cc#
8gg
4gg
4ff
16aa
16gg
16ff
16ee
=55
4dd
16gg
16ff
16ee
16dd
8cc
8cc
8cc
8cc
=56
8b
8ff
8ff
8r
16r
16ee
16dd#
16ee
16dd
16cc
16b
16a
=57
16r
16dd
16cc#
16dd
16cc
16b
16a
16g#
8a
8d#
4d#
=58
8ddd
8dd
4dd
2cc
=59
16b
16ee
16dd#
16ee
16r
32aa
32bb
32ddd
32ccc
32bb
32aa
16gg#
16ee
16dd#
16ee
16r
32aa
32bb
32ddd
32ccc
32bb
32aa
=60
8gg#
4e
[8e
16e]
16f
16f#
16g
16g#
16a
16b-
16b
=61
8cc
8cc
8cc
8cc
8b
8ff
4ff
=62
4ee
16gg
16ff
16ee
16dd
16cc
16b
16a
16g
16a
16g
16a
16b
=63
8cc
8cc
8cc
8cc
8b
8ff
4ff
=64
16ff
16ee
16ff
16dd
8cc
8b
8cc
8bb-
8bb-
8r
=65
4aa
8.ccc
16bb-
8aa
16.r
32gg
8ff
16.r
32aa
=66
8gg
16.r
32bb
8ccc
16.r
32eee
8gg
8ff
8ee
8r
=67
4dd
16ff
16ee
16dd
16cc
16b
16cc
16dd
16ee
16ff
16gg
16aa
16bb
=68
16ccc
16dd
16ee
16ff
16gg
16ee
16aa
16ff
4ee
8dd
8r
=69
8.g
32a
32b
16cc
16b
16a
16g
16g
32f
32r
16e
32d
32r
8c
16B
16r
=70
8.gg
32aa
32bb
32ccc
32ddd
32eee
32bb
32ccc
32gg
32aa
32ee
16gg
32gg
32ff
16ee
32ee
32dd
8cc
16b
16r
=71
16cc
16ccc
4ccc
8bb-
8gg#
8aa
16ddd
16ccc
16bb
16aa
=72
16aa
16gg
16aa
16ff
8ee
8dd
16cc
16ccc
4ccc
8bb-
=73
8gg#
8aa
8r
32ddd
32ccc
32bb
32aa
32ff#
32gg
32ff#
32gg
32bb
32aa
32gg
32ff
32dd#
32ee
32dd#
32ee
32gg
32ff
32ee
32dd
=74
*>B2
8cc
8r
8r
32ccc
32bb
32ccc
32aa
8gg
32aa
32gg
32aa
32ff
8ee
32ff
32ee
32ff
32dd
=75
*>C
8cc
8cc
8cc
8cc
8b
8ff
4ff
=76
4ee
16gg
16ff
16ee
16dd
4dd
8G
8cc
8r
==
*-
